specification/sources/images/hand_poke_pose.svg

<svg xmlns="http://www.w3.org/2000/svg" xmlns:xhtml="http://www.w3.org/1999/xhtml" width="1107" height="769" style="background-color:#fff" viewBox="-0.5 -0.5 1107 769"><path fill="none" stroke="#999" stroke-miterlimit="10" stroke-width="7" d="M804 367q31-32 53.5-27.5T895 373t40 23.5 44 18 60.5 34.5 55.5 93.5 1 220.5" pointer-events="stroke"/><path fill="none" stroke="red" stroke-miterlimit="10" stroke-width="7" d="m426 156 109.52-11.21" pointer-events="stroke"/><path fill="red" stroke="red" stroke-miterlimit="10" stroke-width="7" d="m545.21 143.8-12.27 7.79 2.58-6.8-3.9-6.14Z" pointer-events="all"/><path fill="none" stroke="#3f3" stroke-miterlimit="10" stroke-width="7" d="m429 157-10.21-99.52" pointer-events="stroke"/><path fill="#3f3" stroke="#3f3" stroke-miterlimit="10" stroke-width="7" d="m417.8 47.79 7.79 12.26-6.8-2.57-6.13 3.9Z" pointer-events="all"/><path fill="none" stroke="#00f" stroke-miterlimit="10" stroke-width="7" d="m430 155-28.75 75.57" pointer-events="stroke"/><path fill="#00f" stroke="#00f" stroke-miterlimit="10" stroke-width="7" d="m397.78 239.69-1.45-14.47 4.92 5.35 7.23-.72Z" pointer-events="all"/><path fill="none" stroke="red" stroke-miterlimit="10" stroke-width="7" d="m692 129 106.43-2.57" pointer-events="stroke"/><path fill="red" stroke="red" stroke-miterlimit="10" stroke-width="7" d="M808.18 126.19 795.34 133l3.09-6.57-3.41-6.42Z" pointer-events="all"/><path fill="none" stroke="#3f3" stroke-miterlimit="10" stroke-width="7" d="m693 130-1.7-99.43" pointer-events="stroke"/><path fill="#3f3" stroke="#3f3" stroke-miterlimit="10" stroke-width="7" d="m691.13 20.82 6.72 12.89-6.55-3.14-6.44 3.36Z" pointer-events="all"/><path fill="none" stroke="#00f" stroke-miterlimit="10" stroke-width="7" d="m695 130 17.24 78.83" pointer-events="stroke"/><path fill="#00f" stroke="#00f" stroke-miterlimit="10" stroke-width="7" d="m714.33 218.35-9.13-11.31 7.04 1.79 5.66-4.56Z" pointer-events="all"/><path fill="none" d="M405 11h35v30h-35z" pointer-events="all"/><switch transform="translate(-.5 -.5)"><foreignObject width="100%" height="100%" pointer-events="none" requiredFeatures="http://www.w3.org/TR/SVG11/feature#Extensibility" style="overflow:visible;text-align:left"><xhtml:div style="display:flex;align-items:unsafe center;justify-content:unsafe center;width:33px;height:1px;padding-top:26px;margin-left:406px"><xhtml:div data-drawio-colors="color: #00CC66;" style="box-sizing:border-box;font-size:0;text-align:center"><xhtml:div style="display:inline-block;font-size:22px;font-family:sans-serif;color:#0c6;line-height:1.2;pointer-events:all;font-weight:700;white-space:normal;overflow-wrap:normal">Y</xhtml:div></xhtml:div></xhtml:div></foreignObject><text x="423" y="33" fill="#0C6" font-family="sans-serif" font-size="22" font-weight="bold" text-anchor="middle">Y</text></switch><path fill="none" d="M823 108h35v30h-35z" pointer-events="all"/><switch transform="translate(-.5 -.5)"><foreignObject width="100%" height="100%" pointer-events="none" requiredFeatures="http://www.w3.org/TR/SVG11/feature#Extensibility" style="overflow:visible;text-align:left"><xhtml:div style="display:flex;align-items:unsafe center;justify-content:unsafe center;width:33px;height:1px;padding-top:123px;margin-left:824px"><xhtml:div data-drawio-colors="color: #FF0000;" style="box-sizing:border-box;font-size:0;text-align:center"><xhtml:div style="display:inline-block;font-size:22px;font-family:sans-serif;color:red;line-height:1.2;pointer-events:all;font-weight:700;white-space:normal;overflow-wrap:normal">X</xhtml:div></xhtml:div></xhtml:div></foreignObject><text x="841" y="130" fill="red" font-family="sans-serif" font-size="22" font-weight="bold" text-anchor="middle">X</text></switch><path fill="none" d="M704 250h35v30h-35z" pointer-events="all"/><switch transform="translate(-.5 -.5)"><foreignObject width="100%" height="100%" pointer-events="none" requiredFeatures="http://www.w3.org/TR/SVG11/feature#Extensibility" style="overflow:visible;text-align:left"><xhtml:div style="display:flex;align-items:unsafe center;justify-content:unsafe center;width:33px;height:1px;padding-top:265px;margin-left:705px"><xhtml:div data-drawio-colors="color: #0000FF;" style="box-sizing:border-box;font-size:0;text-align:center"><xhtml:div style="display:inline-block;font-size:22px;font-family:sans-serif;color:#00f;line-height:1.2;pointer-events:all;font-weight:700;white-space:normal;overflow-wrap:normal">Z</xhtml:div></xhtml:div></xhtml:div></foreignObject><text x="722" y="272" fill="#00F" font-family="sans-serif" font-size="22" font-weight="bold" text-anchor="middle">Z</text></switch><path fill="none" d="M697 0h35v30h-35z" pointer-events="all"/><switch transform="translate(-.5 -.5)"><foreignObject width="100%" height="100%" pointer-events="none" requiredFeatures="http://www.w3.org/TR/SVG11/feature#Extensibility" style="overflow:visible;text-align:left"><xhtml:div style="display:flex;align-items:unsafe center;justify-content:unsafe center;width:33px;height:1px;padding-top:15px;margin-left:698px"><xhtml:div data-drawio-colors="color: #00CC66;" style="box-sizing:border-box;font-size:0;text-align:center"><xhtml:div style="display:inline-block;font-size:22px;font-family:sans-serif;color:#0c6;line-height:1.2;pointer-events:all;font-weight:700;white-space:normal;overflow-wrap:normal">Y</xhtml:div></xhtml:div></xhtml:div></foreignObject><text x="715" y="22" fill="#0C6" font-family="sans-serif" font-size="22" font-weight="bold" text-anchor="middle">Y</text></switch><path fill="none" d="M359 260h35v30h-35z" pointer-events="all"/><switch transform="translate(-.5 -.5)"><foreignObject width="100%" height="100%" pointer-events="none" requiredFeatures="http://www.w3.org/TR/SVG11/feature#Extensibility" style="overflow:visible;text-align:left"><xhtml:div style="display:flex;align-items:unsafe center;justify-content:unsafe center;width:33px;height:1px;padding-top:275px;margin-left:360px"><xhtml:div data-drawio-colors="color: #0000FF;" style="box-sizing:border-box;font-size:0;text-align:center"><xhtml:div style="display:inline-block;font-size:22px;font-family:sans-serif;color:#00f;line-height:1.2;pointer-events:all;font-weight:700;white-space:normal;overflow-wrap:normal">Z</xhtml:div></xhtml:div></xhtml:div></foreignObject><text x="377" y="282" fill="#00F" font-family="sans-serif" font-size="22" font-weight="bold" text-anchor="middle">Z</text></switch><path fill="none" d="M531 101h35v30h-35z" pointer-events="all"/><switch transform="translate(-.5 -.5)"><foreignObject width="100%" height="100%" pointer-events="none" requiredFeatures="http://www.w3.org/TR/SVG11/feature#Extensibility" style="overflow:visible;text-align:left"><xhtml:div style="display:flex;align-items:unsafe center;justify-content:unsafe center;width:33px;height:1px;padding-top:116px;margin-left:532px"><xhtml:div data-drawio-colors="color: #FF0000;" style="box-sizing:border-box;font-size:0;text-align:center"><xhtml:div style="display:inline-block;font-size:22px;font-family:sans-serif;color:red;line-height:1.2;pointer-events:all;font-weight:700;white-space:normal;overflow-wrap:normal">X</xhtml:div></xhtml:div></xhtml:div></foreignObject><text x="549" y="123" fill="red" font-family="sans-serif" font-size="22" font-weight="bold" text-anchor="middle">X</text></switch><path fill="none" stroke="#999" stroke-miterlimit="10" stroke-width="7" d="M753 765q-97-109-74.5-168.5T687 405t-26-198.5 23.5-77T743 184t64 206m-613 30q-51 10-75.5 31.5T73 478t-47 39T3 758m396-221q81-16 21 66" pointer-events="stroke"/><path fill="none" stroke="#999" stroke-miterlimit="10" stroke-width="7" d="M307 394q24-131 60.5-191t68.5-49-5 144.5-33 204 30.5 140T392 763" pointer-events="stroke"/><path fill="none" stroke="#999" stroke-miterlimit="10" stroke-width="7" d="M313 363q-27-28-59.5-9.5T188 435" pointer-events="stroke"/><switch><g requiredFeatures="http://www.w3.org/TR/SVG11/feature#Extensibility"/></switch></svg>

<?xml version="1.0" encoding="UTF-8"?>
<!DOCTYPE svg PUBLIC "-//W3C//DTD SVG 1.1//EN" "http://www.w3.org/Graphics/SVG/1.1/DTD/svg11.dtd">
<svg xmlns="http://www.w3.org/2000/svg" xmlns:xlink="http://www.w3.org/1999/xlink" version="1.1" width="1107px" height="769px" viewBox="-0.5 -0.5 1107 769" style="background-color: rgb(255, 255, 255);"><defs/><g><path d="M 804 367 Q 835 335 857.5 339.5 Q 880 344 895 373 Q 910 402 935 396.5 Q 960 391 979 414.5 Q 998 438 1039.5 449 Q 1081 460 1095 542.5 Q 1109 625 1096 763" fill="none" stroke="#999999" stroke-width="7" stroke-miterlimit="10" pointer-events="stroke"/><path d="M 426 156 L 535.52 144.79" fill="none" stroke="#ff0000" stroke-width="7" stroke-miterlimit="10" pointer-events="stroke"/><path d="M 545.21 143.8 L 532.94 151.59 L 535.52 144.79 L 531.62 138.65 Z" fill="#ff0000" stroke="#ff0000" stroke-width="7" stroke-miterlimit="10" pointer-events="all"/><path d="M 429 157 L 418.79 57.48" fill="none" stroke="#33ff33" stroke-width="7" stroke-miterlimit="10" pointer-events="stroke"/><path d="M 417.8 47.79 L 425.59 60.05 L 418.79 57.48 L 412.66 61.38 Z" fill="#33ff33" stroke="#33ff33" stroke-width="7" stroke-miterlimit="10" pointer-events="all"/><path d="M 430 155 L 401.25 230.57" fill="none" stroke="#0000ff" stroke-width="7" stroke-miterlimit="10" pointer-events="stroke"/><path d="M 397.78 239.69 L 396.33 225.22 L 401.25 230.57 L 408.48 229.85 Z" fill="#0000ff" stroke="#0000ff" stroke-width="7" stroke-miterlimit="10" pointer-events="all"/><path d="M 692 129 L 798.43 126.43" fill="none" stroke="#ff0000" stroke-width="7" stroke-miterlimit="10" pointer-events="stroke"/><path d="M 808.18 126.19 L 795.34 133 L 798.43 126.43 L 795.02 120.01 Z" fill="#ff0000" stroke="#ff0000" stroke-width="7" stroke-miterlimit="10" pointer-events="all"/><path d="M 693 130 L 691.3 30.57" fill="none" stroke="#33ff33" stroke-width="7" stroke-miterlimit="10" pointer-events="stroke"/><path d="M 691.13 20.82 L 697.85 33.71 L 691.3 30.57 L 684.86 33.93 Z" fill="#33ff33" stroke="#33ff33" stroke-width="7" stroke-miterlimit="10" pointer-events="all"/><path d="M 695 130 L 712.24 208.83" fill="none" stroke="#0000ff" stroke-width="7" stroke-miterlimit="10" pointer-events="stroke"/><path d="M 714.33 218.35 L 705.2 207.04 L 712.24 208.83 L 717.9 204.27 Z" fill="#0000ff" stroke="#0000ff" stroke-width="7" stroke-miterlimit="10" pointer-events="all"/><rect x="405" y="11" width="35" height="30" fill="none" stroke="none" pointer-events="all"/><g transform="translate(-0.5 -0.5)"><switch><foreignObject pointer-events="none" width="100%" height="100%" requiredFeatures="http://www.w3.org/TR/SVG11/feature#Extensibility" style="overflow: visible; text-align: left;"><div xmlns="http://www.w3.org/1999/xhtml" style="display: flex; align-items: unsafe center; justify-content: unsafe center; width: 33px; height: 1px; padding-top: 26px; margin-left: 406px;"><div data-drawio-colors="color: #00CC66; " style="box-sizing: border-box; font-size: 0px; text-align: center;"><div style="display: inline-block; font-size: 22px; font-family: Helvetica; color: rgb(0, 204, 102); line-height: 1.2; pointer-events: all; font-weight: bold; white-space: normal; overflow-wrap: normal;">Y</div></div></div></foreignObject><text x="423" y="33" fill="#00CC66" font-family="Helvetica" font-size="22px" text-anchor="middle" font-weight="bold">Y</text></switch></g><rect x="823" y="108" width="35" height="30" fill="none" stroke="none" pointer-events="all"/><g transform="translate(-0.5 -0.5)"><switch><foreignObject pointer-events="none" width="100%" height="100%" requiredFeatures="http://www.w3.org/TR/SVG11/feature#Extensibility" style="overflow: visible; text-align: left;"><div xmlns="http://www.w3.org/1999/xhtml" style="display: flex; align-items: unsafe center; justify-content: unsafe center; width: 33px; height: 1px; padding-top: 123px; margin-left: 824px;"><div data-drawio-colors="color: #FF0000; " style="box-sizing: border-box; font-size: 0px; text-align: center;"><div style="display: inline-block; font-size: 22px; font-family: Helvetica; color: rgb(255, 0, 0); line-height: 1.2; pointer-events: all; font-weight: bold; white-space: normal; overflow-wrap: normal;">X</div></div></div></foreignObject><text x="841" y="130" fill="#FF0000" font-family="Helvetica" font-size="22px" text-anchor="middle" font-weight="bold">X</text></switch></g><rect x="704" y="250" width="35" height="30" fill="none" stroke="none" pointer-events="all"/><g transform="translate(-0.5 -0.5)"><switch><foreignObject pointer-events="none" width="100%" height="100%" requiredFeatures="http://www.w3.org/TR/SVG11/feature#Extensibility" style="overflow: visible; text-align: left;"><div xmlns="http://www.w3.org/1999/xhtml" style="display: flex; align-items: unsafe center; justify-content: unsafe center; width: 33px; height: 1px; padding-top: 265px; margin-left: 705px;"><div data-drawio-colors="color: #0000FF; " style="box-sizing: border-box; font-size: 0px; text-align: center;"><div style="display: inline-block; font-size: 22px; font-family: Helvetica; color: rgb(0, 0, 255); line-height: 1.2; pointer-events: all; font-weight: bold; white-space: normal; overflow-wrap: normal;">Z</div></div></div></foreignObject><text x="722" y="272" fill="#0000FF" font-family="Helvetica" font-size="22px" text-anchor="middle" font-weight="bold">Z</text></switch></g><rect x="697" y="0" width="35" height="30" fill="none" stroke="none" pointer-events="all"/><g transform="translate(-0.5 -0.5)"><switch><foreignObject pointer-events="none" width="100%" height="100%" requiredFeatures="http://www.w3.org/TR/SVG11/feature#Extensibility" style="overflow: visible; text-align: left;"><div xmlns="http://www.w3.org/1999/xhtml" style="display: flex; align-items: unsafe center; justify-content: unsafe center; width: 33px; height: 1px; padding-top: 15px; margin-left: 698px;"><div data-drawio-colors="color: #00CC66; " style="box-sizing: border-box; font-size: 0px; text-align: center;"><div style="display: inline-block; font-size: 22px; font-family: Helvetica; color: rgb(0, 204, 102); line-height: 1.2; pointer-events: all; font-weight: bold; white-space: normal; overflow-wrap: normal;">Y</div></div></div></foreignObject><text x="715" y="22" fill="#00CC66" font-family="Helvetica" font-size="22px" text-anchor="middle" font-weight="bold">Y</text></switch></g><rect x="359" y="260" width="35" height="30" fill="none" stroke="none" pointer-events="all"/><g transform="translate(-0.5 -0.5)"><switch><foreignObject pointer-events="none" width="100%" height="100%" requiredFeatures="http://www.w3.org/TR/SVG11/feature#Extensibility" style="overflow: visible; text-align: left;"><div xmlns="http://www.w3.org/1999/xhtml" style="display: flex; align-items: unsafe center; justify-content: unsafe center; width: 33px; height: 1px; padding-top: 275px; margin-left: 360px;"><div data-drawio-colors="color: #0000FF; " style="box-sizing: border-box; font-size: 0px; text-align: center;"><div style="display: inline-block; font-size: 22px; font-family: Helvetica; color: rgb(0, 0, 255); line-height: 1.2; pointer-events: all; font-weight: bold; white-space: normal; overflow-wrap: normal;">Z</div></div></div></foreignObject><text x="377" y="282" fill="#0000FF" font-family="Helvetica" font-size="22px" text-anchor="middle" font-weight="bold">Z</text></switch></g><rect x="531" y="101" width="35" height="30" fill="none" stroke="none" pointer-events="all"/><g transform="translate(-0.5 -0.5)"><switch><foreignObject pointer-events="none" width="100%" height="100%" requiredFeatures="http://www.w3.org/TR/SVG11/feature#Extensibility" style="overflow: visible; text-align: left;"><div xmlns="http://www.w3.org/1999/xhtml" style="display: flex; align-items: unsafe center; justify-content: unsafe center; width: 33px; height: 1px; padding-top: 116px; margin-left: 532px;"><div data-drawio-colors="color: #FF0000; " style="box-sizing: border-box; font-size: 0px; text-align: center;"><div style="display: inline-block; font-size: 22px; font-family: Helvetica; color: rgb(255, 0, 0); line-height: 1.2; pointer-events: all; font-weight: bold; white-space: normal; overflow-wrap: normal;">X</div></div></div></foreignObject><text x="549" y="123" fill="#FF0000" font-family="Helvetica" font-size="22px" text-anchor="middle" font-weight="bold">X</text></switch></g><path d="M 753 765 Q 656 656 678.5 596.5 Q 701 537 687 405 Q 673 273 661 206.5 Q 649 140 684.5 129.5 Q 720 119 743 184 Q 766 249 807 390" fill="none" stroke="#999999" stroke-width="7" stroke-miterlimit="10" pointer-events="stroke"/><path d="M 194 420 Q 143 430 118.5 451.5 Q 94 473 73 478 Q 52 483 26 517 Q 0 551 3 758" fill="none" stroke="#999999" stroke-width="7" stroke-miterlimit="10" pointer-events="stroke"/><path d="M 399 537 Q 480 521 420 603" fill="none" stroke="#999999" stroke-width="7" stroke-miterlimit="10" pointer-events="stroke"/><path d="M 307 394 Q 331 263 367.5 203 Q 404 143 436 154 Q 468 165 431 298.5 Q 394 432 398 502.5 Q 402 573 428.5 642.5 Q 455 712 392 763" fill="none" stroke="#999999" stroke-width="7" stroke-miterlimit="10" pointer-events="stroke"/><path d="M 313 363 Q 286 335 253.5 353.5 Q 221 372 188 435" fill="none" stroke="#999999" stroke-width="7" stroke-miterlimit="10" pointer-events="stroke"/></g><switch><g requiredFeatures="http://www.w3.org/TR/SVG11/feature#Extensibility"/><a transform="translate(0,-5)" xlink:href="https://www.diagrams.net/doc/faq/svg-export-text-problems" target="_blank"><text text-anchor="middle" font-size="10px" x="50%" y="100%">Text is not SVG - cannot display</text></a></switch></svg>
